X:21099
T:JOE CANT'S REEL 
B:DMI.0568
Z:Nordberg/Black
N:Modality ambiguous in source but I'm going with
A mixo on basis of fact that Joe Cant was a war 
piper who wouldn't have been able to play in A
minor or major on the war pipes.
R:reel % A-B-A
%Q:1/4=180
M:C|
L:1/8
K:D
"A modal"
ABcA e2dB|G2BG dGBG|ABcA e2dB|cABG EAA2:|
Aa2g e2ed|cdef g2fe|Aa2g e2ed|cABG EAA2|
Aa2g e2ed|cdef g2fe|agfe gfed|edef g2ea|]
"repeat mm 1 - 4 once"

%%%

